Badges/Roblox-Styled/Original/link-docs.svg

<svg width="90" height="32" viewBox="0 0 90 32" fill="none" xmlns="http://www.w3.org/2000/svg">
<g filter="url(#filter0_i_25_79)">
<rect width="90" height="32" rx="4" fill="#335FFF"/>
<path d="M14.4453 9.48438C14.9818 9.44271 15.5 9.48438 16 9.60938C16.5469 9.74479 17.0469 9.97656 17.5 10.3047V21.9922C16.8438 21.4974 16.1328 21.2552 15.3672 21.2656C14.9453 21.2708 14.5182 21.3542 14.0859 21.5156C13.6328 21.6875 13.1823 21.9453 12.7344 22.2891C12.5729 22.4193 12.388 22.4948 12.1797 22.5156C11.9922 22.5312 11.8073 22.5 11.625 22.4219C11.4479 22.349 11.3021 22.2344 11.1875 22.0781C11.0625 21.901 11 21.7031 11 21.4844V11.6172C11 11.3932 11.0677 11.1953 11.2031 11.0234C11.5312 10.6068 11.987 10.2604 12.5703 9.98438C13.1589 9.70312 13.7839 9.53646 14.4453 9.48438ZM18.5 10.2656C18.9479 9.96354 19.4401 9.75 19.9766 9.625C20.4661 9.51042 20.974 9.47396 21.5 9.51562C22.125 9.5625 22.7214 9.71094 23.2891 9.96094C23.8568 10.2109 24.3151 10.526 24.6641 10.9062L24.7969 11.0547C24.9323 11.2266 25 11.4245 25 11.6484V21.4844C25 21.7031 24.9375 21.901 24.8125 22.0781C24.6979 22.2344 24.5495 22.349 24.3672 22.4219C24.1901 22.5 24.0078 22.5312 23.8203 22.5156C23.612 22.4948 23.4271 22.4193 23.2656 22.2891C22.8229 21.9453 22.3724 21.6875 21.9141 21.5156C21.4818 21.3542 21.0547 21.2708 20.6328 21.2656C19.8672 21.2552 19.1562 21.4974 18.5 21.9922V10.2656Z" fill="white"/>
<path d="M34.792 20V12.3H37.333C39.863 12.3 41.392 13.466 41.392 16.15C41.392 18.834 39.863 20 37.333 20H34.792ZM37.399 18.548C38.972 18.548 39.852 17.8 39.852 16.15C39.852 14.5 38.972 13.752 37.399 13.752H36.288V18.548H37.399ZM44.9686 20.11C43.2196 20.11 42.1196 18.889 42.1196 17.096C42.1196 15.303 43.2196 14.082 44.9686 14.082C46.7176 14.082 47.8176 15.303 47.8176 17.096C47.8176 18.889 46.7176 20.11 44.9686 20.11ZM44.9796 18.812C45.8156 18.812 46.3876 18.185 46.3876 17.096C46.3876 16.007 45.8156 15.38 44.9796 15.38C44.1436 15.38 43.5496 16.007 43.5496 17.096C43.5496 18.185 44.1436 18.812 44.9796 18.812ZM51.4899 20.11C49.7519 20.11 48.6079 18.889 48.6079 17.096C48.6079 15.303 49.7519 14.082 51.4899 14.082C52.3919 14.082 53.2719 14.456 53.7669 15.105L52.8209 16.051C52.5129 15.666 52.0289 15.38 51.4569 15.38C50.6209 15.38 50.0379 16.007 50.0379 17.096C50.0379 18.185 50.6209 18.812 51.4569 18.812C52.0289 18.812 52.5129 18.526 52.8209 18.141L53.7669 19.087C53.2719 19.736 52.3919 20.11 51.4899 20.11ZM56.7614 20.11C55.7714 20.11 55.0344 19.758 54.3744 19.219L55.1224 18.207C55.5844 18.614 56.1344 18.9 56.7614 18.9C57.3444 18.9 57.6744 18.702 57.6744 18.328C57.6744 17.976 57.4324 17.855 56.9594 17.756L56.2224 17.602C55.2214 17.393 54.6384 16.887 54.6384 15.941C54.6384 14.797 55.4634 14.082 56.7944 14.082C57.6304 14.082 58.3784 14.335 58.9834 14.885L58.2024 15.853C57.7734 15.501 57.3114 15.292 56.7724 15.292C56.3764 15.292 56.0024 15.424 56.0024 15.787C56.0024 16.062 56.1784 16.238 56.7394 16.359L57.5534 16.535C58.4224 16.722 59.0714 17.173 59.0714 18.141C59.0714 19.373 58.1584 20.11 56.7614 20.11Z" fill="white"/>
<path d="M73.625 11.1875C73.7812 11.1875 73.9141 11.2422 74.0234 11.3516C74.1328 11.4609 74.1875 11.5938 74.1875 11.75C74.1875 11.9062 74.1328 12.0391 74.0234 12.1484C73.9141 12.2578 73.7812 12.3125 73.625 12.3125H70.0625V20.1875H77.9375V16.625C77.9375 16.4688 77.9922 16.3359 78.1016 16.2266C78.2109 16.1172 78.3438 16.0625 78.5 16.0625C78.6562 16.0625 78.7891 16.1172 78.8984 16.2266C79.0078 16.3359 79.0625 16.4688 79.0625 16.625V20.375C79.0625 20.543 79.0195 20.6992 78.9336 20.8438C78.8516 20.9883 78.7383 21.1016 78.5938 21.1836C78.4492 21.2695 78.293 21.3125 78.125 21.3125H69.875C69.707 21.3125 69.5508 21.2695 69.4062 21.1836C69.2617 21.1016 69.1465 20.9883 69.0605 20.8438C68.9785 20.6992 68.9375 20.543 68.9375 20.375V12.125C68.9375 11.957 68.9785 11.8008 69.0605 11.6562C69.1465 11.5117 69.2617 11.3984 69.4062 11.3164C69.5508 11.2305 69.707 11.1875 69.875 11.1875H73.625ZM78.5 11.1875C78.6562 11.1875 78.7891 11.2422 78.8984 11.3516C79.0078 11.4609 79.0625 11.5938 79.0625 11.75V14C79.0625 14.1562 79.0078 14.2891 78.8984 14.3984C78.7891 14.5078 78.6562 14.5625 78.5 14.5625C78.3438 14.5625 78.2109 14.5078 78.1016 14.3984C77.9922 14.2891 77.9375 14.1562 77.9375 14V13.1094L74.3984 16.6484C74.2891 16.7578 74.1562 16.8125 74 16.8125C73.8438 16.8125 73.7109 16.7578 73.6016 16.6484C73.4922 16.5391 73.4375 16.4062 73.4375 16.25C73.4375 16.0938 73.4922 15.9609 73.6016 15.8516L77.1406 12.3125H76.25C76.0938 12.3125 75.9609 12.2578 75.8516 12.1484C75.7422 12.0391 75.6875 11.9062 75.6875 11.75C75.6875 11.5938 75.7422 11.4609 75.8516 11.3516C75.9609 11.2422 76.0938 11.1875 76.25 11.1875H78.5Z" fill="white"/>
</g>
<defs>
<filter id="filter0_i_25_79" x="0" y="-2" width="90" height="34" filterUnits="userSpaceOnUse" color-interpolation-filters="sRGB">
<feFlood flood-opacity="0" result="BackgroundImageFix"/>
<feBlend mode="normal" in="SourceGraphic" in2="BackgroundImageFix" result="shape"/>
<feColorMatrix in="SourceAlpha" type="matrix" values="0 0 0 0 0 0 0 0 0 0 0 0 0 0 0 0 0 0 127 0" result="hardAlpha"/>
<feOffset dy="-2"/>
<feGaussianBlur stdDeviation="1.65"/>
<feComposite in2="hardAlpha" operator="arithmetic" k2="-1" k3="1"/>
<feColorMatrix type="matrix" values="0 0 0 0 1 0 0 0 0 1 0 0 0 0 1 0 0 0 0.11 0"/>
<feBlend mode="normal" in2="shape" result="effect1_innerShadow_25_79"/>
</filter>
</defs>
</svg>

<svg xmlns="http://www.w3.org/2000/svg" width="90" height="32" fill="none">
  <g filter="url(#a)">
    <rect width="90" height="32" fill="#335fff" rx="4"/>
    <path fill="#fff" d="M14.445 9.484q.805-.062 1.555.125a4.3 4.3 0 0 1 1.5.696v11.687q-.984-.742-2.133-.726a3.8 3.8 0 0 0-1.281.25q-.68.258-1.352.773-.242.195-.554.227a1.15 1.15 0 0 1-.555-.094 1.01 1.01 0 0 1-.625-.937v-9.868q0-.336.203-.594.492-.624 1.367-1.039a5.3 5.3 0 0 1 1.875-.5m4.055.782q.672-.453 1.477-.641.734-.172 1.523-.11a5.4 5.4 0 0 1 1.79.446q.85.375 1.374.945l.133.149q.203.258.203.593v9.836q0 .33-.187.594-.173.234-.446.344-.266.117-.547.094a1.03 1.03 0 0 1-.554-.227 5.2 5.2 0 0 0-1.352-.773 3.8 3.8 0 0 0-1.281-.25q-1.149-.016-2.133.726zM34.792 20v-7.7h2.541c2.53 0 4.059 1.166 4.059 3.85S39.863 20 37.333 20zm2.607-1.452c1.573 0 2.453-.748 2.453-2.398s-.88-2.398-2.453-2.398h-1.111v4.796zm7.57 1.562c-1.75 0-2.85-1.221-2.85-3.014s1.1-3.014 2.85-3.014 2.849 1.221 2.849 3.014-1.1 3.014-2.85 3.014m.01-1.298c.837 0 1.409-.627 1.409-1.716s-.572-1.716-1.408-1.716-1.43.627-1.43 1.716.594 1.716 1.43 1.716m6.51 1.298c-1.737 0-2.881-1.221-2.881-3.014s1.144-3.014 2.882-3.014c.902 0 1.782.374 2.277 1.023l-.946.946a1.75 1.75 0 0 0-1.364-.671c-.836 0-1.42.627-1.42 1.716s.584 1.716 1.42 1.716c.572 0 1.056-.286 1.364-.671l.946.946c-.495.649-1.375 1.023-2.277 1.023m5.272 0c-.99 0-1.727-.352-2.387-.891l.748-1.012c.462.407 1.012.693 1.64.693.582 0 .912-.198.912-.572 0-.352-.242-.473-.715-.572l-.737-.154c-1-.209-1.584-.715-1.584-1.661 0-1.144.825-1.859 2.156-1.859.836 0 1.584.253 2.19.803l-.782.968c-.429-.352-.89-.561-1.43-.561-.396 0-.77.132-.77.495 0 .275.176.451.737.572l.814.176c.87.187 1.518.638 1.518 1.606 0 1.232-.913 1.969-2.31 1.969m16.863-8.922q.235 0 .398.164.165.164.165.398t-.165.398a.54.54 0 0 1-.398.165h-3.562v7.874h7.874v-3.562q0-.235.165-.398a.54.54 0 0 1 .398-.165q.235 0 .398.165.165.164.165.398v3.75a.9.9 0 0 1-.13.469.9.9 0 0 1-.34.34.9.9 0 0 1-.468.128h-8.25a.9.9 0 0 1-.469-.128.93.93 0 0 1-.346-.34.93.93 0 0 1-.123-.469v-8.25q0-.252.124-.469a.93.93 0 0 1 .345-.34.9.9 0 0 1 .469-.129zm4.875 0q.235 0 .398.164.165.164.165.398V14q0 .235-.165.398a.54.54 0 0 1-.398.165.54.54 0 0 1-.398-.165.54.54 0 0 1-.165-.398v-.89l-3.539 3.538a.54.54 0 0 1-.398.165.54.54 0 0 1-.398-.165.54.54 0 0 1-.165-.398q0-.235.165-.398l3.539-3.54h-.891a.54.54 0 0 1-.398-.164.54.54 0 0 1-.165-.398q0-.235.165-.398a.54.54 0 0 1 .398-.165z"/>
  </g>
  <defs>
    <filter id="a" width="90" height="34" x="0" y="-2" color-interpolation-filters="sRGB" filterUnits="userSpaceOnUse">
      <feFlood flood-opacity="0" result="BackgroundImageFix"/>
      <feBlend in="SourceGraphic" in2="BackgroundImageFix" result="shape"/>
      <feColorMatrix in="SourceAlpha" result="hardAlpha" values="0 0 0 0 0 0 0 0 0 0 0 0 0 0 0 0 0 0 127 0"/>
      <feOffset dy="-2"/>
      <feGaussianBlur stdDeviation="1.65"/>
      <feComposite in2="hardAlpha" k2="-1" k3="1" operator="arithmetic"/>
      <feColorMatrix values="0 0 0 0 1 0 0 0 0 1 0 0 0 0 1 0 0 0 0.11 0"/>
      <feBlend in2="shape" result="effect1_innerShadow_25_79"/>
    </filter>
  </defs>
</svg>
